X:1
T:Title
%%score { 1 | ( 2 3 ) }
L:1/8
M:3/4
K:G
V:1 treble nm="Grand Piano"
V:2 bass 
V:3 bass 
V:1
 z2 z2[Q:1/4=100] B>B | B2 _B2 =B2 | c2 B2 B>B | B2 A2 ^G2 | A4 A>A | A2 A2 B2 | c2 B2 A>A | %7
 .[G,B,G]2 [DF]2 [CE]2 | [B,D]4 B>B | B2 _B2 =B2 | c2 B2 [GB]>[GB] | [^Ge]2 [Gd]2 [GB]2 | c4 B>B | %13
 [FA]2 [FA]2 [GB]2 | [Ac]2 [GB]2 [FA]>[FA] | [GB]2 [GB]2 [G^c]2 |[M:2/4] [Fd]4 |[M:1/4] [CD]>[CD] | %18
[M:3/4] [B,D]2 [B,G]2 [B,A]2 | [CG]2 [CF]2 D>D | D2 A2 B2 | G4 [B,G]>[CA] | [DB]2 [DB]2 [Dc]2 | %23
 [=Fd]2 [Ec]2 [EA]>[EA] | G2 B2 A2 |[M:2/4] G4 |] %26
V:2
 z2 z2 [G,D]>[G,D] | [G,D]2 [G,^C]2 [G,D]2 | [G,E]2 [G,D]2 [G,D]>[G,D] | %3
 [D,F,C]2 [D,F,C]2 [D,=F,C]2 | [D,F,C]4 [D,F,D]>[D,F,D] | [D,F,D]2 [D,F,D]2 [D,G,D]2 | %6
 [D,A,D]2 [D,G,D]2 [D,F,C]>[D,F,C] | z D, [G,,E,]2 [G,,F,]2 | [G,,G,]4 [G,D]>[G,D] | %9
 [G,D]2 [G,^C]2 [G,D]2 | [G,E]2 [G,D]2 [=F,D]>[F,D] | [E,B,]2 [E,E]2 [E,E]2 | %12
 [A,EA]4 [A,^CG]>[A,CG] | [D,D]2 [D,D]2 [D,D]2 | [D,D]2 [D,D]2 [D,D]>[D,D] | [G,D]2 [E,E]2 [A,E]2 | %16
[M:2/4] [D,D]4 |[M:1/4] [D,F,]>[D,F,] |[M:3/4] [G,,G,]2 [G,,D,]2 [G,,D,]2 | %19
 [A,,D,]2 [A,,D,]2 [D,F,C]>[D,F,C] | [D,F,C]2 [D,F,C]2 [D,F,D]2 | [G,B,]4 [G,,G,]>[G,,G,] | %22
 [G,,G,]2 [G,,G,]2 [A,,G,]2 | [B,,^G,]2 [C,A,]2 [C,C]>[C,C] | [D,B,D]2 [D,D]2 [D,CD]2 | %25
[M:2/4] [G,B,D]4 |] %26
V:3
 x6 | x6 | x6 | x6 | x6 | x6 | x6 | G,,2 z2 z2 | x6 | x6 | x6 | x6 | x6 | x6 | x6 | x6 | %16
[M:2/4] x4 |[M:1/4] x2 |[M:3/4] x6 | x6 | x6 | x6 | x6 | x6 | x6 |[M:2/4] x4 |] %26

